X:2
T:Musical Priest, The
R:reel
M:4/4
L:1/8
K:Bm
"Variations:"\
FBBA ~B3d|cBAc ecBA|FBBA ~B3d|cBAc ~B3A|
FBBF GBdB|cBAc ecBA|FBBF GBdB|cBAc ~B3c|]
d2dc dfed|(3cBA eA fAeA|d2dc defg|afec dBBc|
d2dc dfed|(3cBA eA fAeA|d2dc dfaf|ecAB dBBc|]
bB~B2 bB~B2|cBAc ecBA|bB~B2 bBBb|c'bac' ~b3z|
bB~B2 bB~B2|cBAc eABc|d2dc defg|afec dBBA|]
